!!!COM: Aaron Copland
!!!OTL: [T705_Cop-w7p57h45m1-h46m2]
**kern	**dynam	**kern	**dynam	**kern	**dynam	**kern	**dynam	**kern	**kern	**dynam	**kern	**kern	**dynam	**kern	**dynam	**kern	**dynam	**kern	**dynam	**kern	**dynam	**kern	**dynam	**kern	**dynam	**kern	**dynam	**kern	**dynam	**kern	**dynam
*grp:A	*grp:A	*grp:A	*grp:A	*grp:A	*grp:A	*grp:A	*grp:A	*grp:A	*grp:A	*grp:A	*grp:A	*grp:A	*grp:A	*grp:A	*grp:A	*grp:B	*grp:B	*grp:B	*grp:B	*grp:A	*grp:A	*grp:A	*grp:A	*grp:B	*grp:B	*grp:A	*grp:A	*grp:A	*grp:A	*grp:A	*grp:A
*part16	*part16	*part15	*part15	*part14	*part14	*part13	*part13	*part12	*part12	*part12	*part11	*part10	*part10	*part9	*part9	*part8	*part8	*part7	*part7	*part6	*part6	*part5	*part5	*part4	*part4	*part3	*part3	*part2	*part2	*part1	*part1
*staff17	*staff17	*staff16	*staff16	*staff15	*staff15	*staff14	*staff14	*staff13	*staff12	*staff12	*staff11	*staff10	*staff10	*staff9	*staff9	*staff8	*staff8	*staff7	*staff7	*staff6	*staff6	*staff5	*staff5	*staff4	*staff4	*staff3	*staff3	*staff2	*staff2	*staff1	*staff1
*I"Contrabass	*I"Contrabass	*I"Viola	*I"Viola	*I"Violin II	*I"Violin II	*I"Violin I	*I"Violin I	*I"Piano	*I"Piano	*I"Piano	*I"Wood Block	*I"Temple Blocks	*I"Temple Blocks	*I"Timpani	*I"Timpani	*I"Trumpet in C 2.	*I"Trumpet in C 2.	*I"Trumpet in C 1.	*I"Trumpet in C 1.	*I"Clarinet in Bb 1. 2.	*I"Clarinet in Bb 1. 2.	*I"Clarinet in Eb	*I"Clarinet in Eb	*I"Cor Anglais	*I"Cor Anglais	*I"Oboe 3.	*I"Oboe 3.	*I"Oboe 1. 2.	*I"Oboe 1. 2.	*I"Flute 1. 2. 3.	*I"Flute 1. 2. 3.
*I'Cb.	*	*I'Vla.	*	*I'Vln. II	*	*I'Vln. I	*	*I'Pno.	*	*	*I'W.Bl.	*I'T.Bl.	*	*I'Timp.	*	*I'C Tpt. 2.	*	*I'C Tpt. 1.	*	*I'Cl. 1. 2.	*	*I'Eb Cl.	*	*I'C. A.	*	*I'Ob. 3.	*	*I'Ob. 1. 2.	*	*I'Fl. 1. 2. 3.	*
!!pagebreak:original
*	*	*	*	*	*	*	*	*	*	*	*stria1	*stria3	*	*	*	*	*	*	*	*	*	*	*	*	*	*	*	*	*	*	*
*clefF4	*	*clefC3	*	*clefG2	*	*clefG2	*	*clefF4	*clefF4	*	*clefX	*clefX	*	*clefF4	*	*clefG2	*	*clefG2	*	*clefG2	*	*clefG2	*	*clefG2	*	*clefG2	*	*clefG2	*	*clefG2	*
*ITrd7c12	*	*	*	*	*	*	*	*	*	*	*	*	*	*	*	*	*	*	*	*ITrd1c2	*	*ITrd-2c-3	*	*ITrd4c7	*	*	*	*	*	*	*
*k[]	*	*k[]	*	*k[]	*	*k[]	*	*k[]	*k[]	*	*k[]	*k[]	*	*k[]	*	*k[]	*	*k[]	*	*k[b-e-]	*	*k[b-e-a-]	*	*k[b-]	*	*k[]	*	*k[]	*	*k[]	*
*	*	*	*	*	*	*	*	*	*	*	*C:	*C:	*	*	*	*	*	*	*	*	*	*	*	*	*	*	*	*	*	*	*
*M2/2	*	*M2/2	*	*M2/2	*	*M2/2	*	*M2/2	*M2/2	*	*M2/2	*M2/2	*	*M2/2	*	*M2/2	*	*M2/2	*	*M2/2	*	*M2/2	*	*M2/2	*	*M2/2	*	*M2/2	*	*M2/2	*
!!LO:REH:t=45
=1	=1	=1	=1	=1	=1	=1	=1	=1	=1	=1	=1	=1	=1	=1	=1	=1	=1	=1	=1	=1	=1	=1	=1	=1	=1	=1	=1	=1	=1	=1	=1
!	!	!	!LO:DY:t=sub. %s au talon	!	!	!	!	!	!	!	!	!	!	!LO:TX:a:i:t=molto ritmico	!LO:DY:t=sub. %s	!	!	!	!	!	!	!	!	!	!	!	!	!	!	!	!
1ryy	.	4ryy	4ryy	1ryy	.	1ryy	.	1ryy	1ryy	.	1ryy	1ryy	.	4ryy	4ryy	1r	.	1r	.	1ryy	.	1ryy	.	1r	.	1ryy	.	1ryy	.	1ryy	.
.	.	4ryy	.	.	.	.	.	.	.	.	.	.	.	4ryy	.	.	.	.	.	.	.	.	.	.	.	.	.	.	.	.	.
.	.	4..ryy	.	.	.	.	.	.	.	.	.	.	.	4..ryy	.	.	.	.	.	.	.	.	.	.	.	.	.	.	.	.	.
.	.	16ryy	.	.	.	.	.	.	.	.	.	.	.	16ryy	.	.	.	.	.	.	.	.	.	.	.	.	.	.	.	.	.
=2	=2	=2	=2	=2	=2	=2	=2	=2	=2	=2	=2	=2	=2	=2	=2	=2	=2	=2	=2	=2	=2	=2	=2	=2	=2	=2	=2	=2	=2	=2	=2
*M3/4	*	*M3/4	*	*M3/4	*	*M3/4	*	*M3/4	*M3/4	*	*M3/4	*M3/4	*	*M3/4	*	*M3/4	*	*M3/4	*	*M3/4	*	*M3/4	*	*M3/4	*	*M3/4	*	*M3/4	*	*M3/4	*
4%3ryy	.	4ryy	.	4%3ryy	.	4%3ryy	.	4%3ryy	4%3ryy	.	4%3ryy	4%3ryy	.	4ryy	.	4%3r	.	4%3r	.	4%3ryy	.	4%3ryy	.	4%3r	.	4%3ryy	.	4%3ryy	.	4%3ryy	.
.	.	4ryy	.	.	.	.	.	.	.	.	.	.	.	4ryy	.	.	.	.	.	.	.	.	.	.	.	.	.	.	.	.	.
.	.	4ryy	.	.	.	.	.	.	.	.	.	.	.	4ryy	.	.	.	.	.	.	.	.	.	.	.	.	.	.	.	.	.
=3	=3	=3	=3	=3	=3	=3	=3	=3	=3	=3	=3	=3	=3	=3	=3	=3	=3	=3	=3	=3	=3	=3	=3	=3	=3	=3	=3	=3	=3	=3	=3
*M2/2	*	*M2/2	*	*M2/2	*	*M2/2	*	*M2/2	*M2/2	*	*M2/2	*M2/2	*	*M2/2	*	*M2/2	*	*M2/2	*	*M2/2	*	*M2/2	*	*M2/2	*	*M2/2	*	*M2/2	*	*M2/2	*
1ryy	.	1ryy	.	1ryy	.	1ryy	.	4ryy	4ryy	.	1ryy	1ryy	.	4ryy	.	1r	.	1r	.	1ryy	.	1ryy	.	1r	.	1ryy	.	1ryy	.	1ryy	.
*	*	*	*	*	*	*	*	*8ba	*	*	*	*	*	*	*	*	*	*	*	*	*	*	*	*	*	*	*	*	*	*	*
!	!	!	!	!	!	!	!	!LO:TX:b:i:t=senza ped.	!LO:TX:a:t=(molto ritmico)	!LO:DY:t=%s secco	!	!	!	!	!	!	!	!	!	!	!	!	!	!	!	!	!	!	!	!	!
.	.	.	.	.	.	.	.	4ryy	4ryy	4ryy	.	.	.	4ryy	.	.	.	.	.	.	.	.	.	.	.	.	.	.	.	.	.
.	.	.	.	.	.	.	.	4..ryy	4..ryy	.	.	.	.	4..ryy	.	.	.	.	.	.	.	.	.	.	.	.	.	.	.	.	.
.	.	.	.	.	.	.	.	16ryy	16ryy	.	.	.	.	16ryy	.	.	.	.	.	.	.	.	.	.	.	.	.	.	.	.	.
=4	=4	=4	=4	=4	=4	=4	=4	=4	=4	=4	=4	=4	=4	=4	=4	=4	=4	=4	=4	=4	=4	=4	=4	=4	=4	=4	=4	=4	=4	=4	=4
*M3/4	*	*M3/4	*	*M3/4	*	*M3/4	*	*M3/4	*M3/4	*	*M3/4	*M3/4	*	*M3/4	*	*M3/4	*	*M3/4	*	*M3/4	*	*M3/4	*	*M3/4	*	*M3/4	*	*M3/4	*	*M3/4	*
4%3ryy	.	4%3ryy	.	4%3ryy	.	4%3ryy	.	4ryy	4ryy	.	4%3ryy	4%3ryy	.	4ryy	.	4%3r	.	4%3r	.	4%3ryy	.	4%3ryy	.	4%3r	.	4%3ryy	.	4%3ryy	.	4%3ryy	.
.	.	.	.	.	.	.	.	4ryy	4ryy	.	.	.	.	4ryy	.	.	.	.	.	.	.	.	.	.	.	.	.	.	.	.	.
.	.	.	.	.	.	.	.	4ryy	4ryy	.	.	.	.	4ryy	.	.	.	.	.	.	.	.	.	.	.	.	.	.	.	.	.
=5	=5	=5	=5	=5	=5	=5	=5	=5	=5	=5	=5	=5	=5	=5	=5	=5	=5	=5	=5	=5	=5	=5	=5	=5	=5	=5	=5	=5	=5	=5	=5
*M2/2	*	*M2/2	*	*M2/2	*	*M2/2	*	*M2/2	*M2/2	*	*M2/2	*M2/2	*	*M2/2	*	*M2/2	*	*M2/2	*	*M2/2	*	*M2/2	*	*M2/2	*	*M2/2	*	*M2/2	*	*M2/2	*
1ryy	.	4ryy	.	1ryy	.	1ryy	.	4ryy	4ryy	.	1ryy	1ryy	.	4ryy	.	1r	.	1r	.	1ryy	.	1ryy	.	1r	.	1ryy	.	1ryy	.	1ryy	.
.	.	8ryy	.	.	.	.	.	4ryy	8ryy	.	.	.	.	4ryy	.	.	.	.	.	.	.	.	.	.	.	.	.	.	.	.	.
.	.	8ryy	.	.	.	.	.	.	8ryy	.	.	.	.	.	.	.	.	.	.	.	.	.	.	.	.	.	.	.	.	.	.
.	.	8ryy	.	.	.	.	.	4..ryy	8ryy	.	.	.	.	4..ryy	.	.	.	.	.	.	.	.	.	.	.	.	.	.	.	.	.
.	.	8ryy	.	.	.	.	.	.	8ryy	.	.	.	.	.	.	.	.	.	.	.	.	.	.	.	.	.	.	.	.	.	.
.	.	8ryy	.	.	.	.	.	.	8ryy	.	.	.	.	.	.	.	.	.	.	.	.	.	.	.	.	.	.	.	.	.	.
.	.	8ryy	.	.	.	.	.	.	8ryy	.	.	.	.	.	.	.	.	.	.	.	.	.	.	.	.	.	.	.	.	.	.
.	.	.	.	.	.	.	.	16ryy	.	.	.	.	.	16ryy	.	.	.	.	.	.	.	.	.	.	.	.	.	.	.	.	.
=6	=6	=6	=6	=6	=6	=6	=6	=6	=6	=6	=6	=6	=6	=6	=6	=6	=6	=6	=6	=6	=6	=6	=6	=6	=6	=6	=6	=6	=6	=6	=6
*M3/4	*	*M3/4	*	*M3/4	*	*M3/4	*	*M3/4	*M3/4	*	*M3/4	*M3/4	*	*M3/4	*	*M3/4	*	*M3/4	*	*M3/4	*	*M3/4	*	*M3/4	*	*M3/4	*	*M3/4	*	*M3/4	*
!	!	!	!	!	!	!	!	!	!	!	!	!	!	!	!	!LO:TX:a:t=2. con sord.	!	!LO:TX:a:t=1. con sord.	!	!	!	!	!	!	!	!	!	!	!	!	!
4%3ryy	.	4%3ryy	.	4%3ryy	.	4%3ryy	.	4ryy	4%3ryy	.	4%3ryy	4%3ryy	.	4ryy	.	4r	.	4r	.	4%3ryy	.	4%3ryy	.	4r	.	4%3ryy	.	4%3ryy	.	4%3ryy	.
!	!	!	!	!	!	!	!	!	!	!	!	!	!	!	!	!	!LO:DY:t=%s secco a marc.	!	!LO:DY:t=%s secco a marc.	!	!	!	!	!LO:TX:a:t=Solo	!LO:DY:t=%s secco, non legato a marc.	!	!	!	!	!	!
.	.	.	.	.	.	.	.	4ryy	.	.	.	.	.	4ryy	.	4g	mf	4b	mf	.	.	.	.	4dd	mf	.	.	.	.	.	.
.	.	.	.	.	.	.	.	4ryy	.	.	.	.	.	4ryy	.	4a	.	4cc	.	.	.	.	.	4dd	.	.	.	.	.	.	.
=7	=7	=7	=7	=7	=7	=7	=7	=7	=7	=7	=7	=7	=7	=7	=7	=7	=7	=7	=7	=7	=7	=7	=7	=7	=7	=7	=7	=7	=7	=7	=7
*M2/2	*	*M2/2	*	*M2/2	*	*M2/2	*	*M2/2	*M2/2	*	*M2/2	*M2/2	*	*M2/2	*	*M2/2	*	*M2/2	*	*M2/2	*	*M2/2	*	*M2/2	*	*M2/2	*	*M2/2	*	*M2/2	*
1ryy	.	1ryy	.	1ryy	.	1ryy	.	4ryy	1ryy	.	1ryy	1ryy	.	4ryy	.	4..a	.	4..b	.	1ryy	.	1ryy	.	4..dd	.	1ryy	.	1ryy	.	1ryy	.
.	.	.	.	.	.	.	.	4ryy	.	.	.	.	.	4ryy	.	.	.	.	.	.	.	.	.	.	.	.	.	.	.	.	.
.	.	.	.	.	.	.	.	.	.	.	.	.	.	.	.	16a	.	16cc	.	.	.	.	.	16dd	.	.	.	.	.	.	.
.	.	.	.	.	.	.	.	4..ryy	.	.	.	.	.	4..ryy	.	4a	.	4dd	.	.	.	.	.	4bX	.	.	.	.	.	.	.
.	.	.	.	.	.	.	.	.	.	.	.	.	.	.	.	4g	.	4a	.	.	.	.	.	4dd	.	.	.	.	.	.	.
.	.	.	.	.	.	.	.	16ryy	.	.	.	.	.	16ryy	.	.	.	.	.	.	.	.	.	.	.	.	.	.	.	.	.
=8	=8	=8	=8	=8	=8	=8	=8	=8	=8	=8	=8	=8	=8	=8	=8	=8	=8	=8	=8	=8	=8	=8	=8	=8	=8	=8	=8	=8	=8	=8	=8
*M3/4	*	*M3/4	*	*M3/4	*	*M3/4	*	*M3/4	*M3/4	*	*M3/4	*M3/4	*	*M3/4	*	*M3/4	*	*M3/4	*	*M3/4	*	*M3/4	*	*M3/4	*	*M3/4	*	*M3/4	*	*M3/4	*
*	*	*	*	*	*	*	*	*	*	*	*	*head:x	*	*	*	*	*	*	*	*	*	*	*	*	*	*	*	*	*	*	*
4%3ryy	.	4ryy	.	4%3ryy	.	4%3ryy	.	4ryy	4ryy	.	4%3ryy	4ryy	.	4ryy	.	4B	.	4g	.	4%3ryy	.	4%3ryy	.	4a	.	4%3ryy	.	4%3ryy	.	4%3ryy	.
.	.	4ryy	.	.	.	.	.	4ryy	4ryy	.	.	4ryy	4ryy	4ryy	.	4r	.	4r	.	.	.	.	.	4r	.	.	.	.	.	.	.
.	.	8ryy	.	.	.	.	.	4ryy	8ryy	.	.	4ryy	.	4ryy	.	4r	.	4r	.	.	.	.	.	4r	.	.	.	.	.	.	.
.	.	8ryy	.	.	.	.	.	.	8ryy	.	.	.	.	.	.	.	.	.	.	.	.	.	.	.	.	.	.	.	.	.	.
!!pagebreak:original
=9	=9	=9	=9	=9	=9	=9	=9	=9	=9	=9	=9	=9	=9	=9	=9	=9	=9	=9	=9	=9	=9	=9	=9	=9	=9	=9	=9	=9	=9	=9	=9
*M2/2	*	*M2/2	*	*M2/2	*	*M2/2	*	*M2/2	*M2/2	*	*M2/2	*M2/2	*	*M2/2	*	*M2/2	*	*M2/2	*	*M2/2	*	*M2/2	*	*M2/2	*	*M2/2	*	*M2/2	*	*M2/2	*
!LO:TX:a:t=div. ritmico	!LO:DY:t=%s secco, non legato	!	!	!	!	!	!	!	!	!	!	!	!	!	!	!	!	!	!	!	!	!	!	!	!	!	!	!	!	!	!
4ryy	4ryy	8ryy	.	1ryy	.	1ryy	.	4ryy	8ryy	.	1ryy	4ryy	.	4ryy	.	2r	.	2r	.	1ryy	.	1ryy	.	2r	.	1ryy	.	1ryy	.	1ryy	.
.	.	8ryy	.	.	.	.	.	.	8ryy	.	.	.	.	.	.	.	.	.	.	.	.	.	.	.	.	.	.	.	.	.	.
4ryy	.	8ryy	.	.	.	.	.	4ryy	8ryy	.	.	4ryy	.	4ryy	.	.	.	.	.	.	.	.	.	.	.	.	.	.	.	.	.
.	.	8ryy	.	.	.	.	.	.	8ryy	.	.	.	.	.	.	.	.	.	.	.	.	.	.	.	.	.	.	.	.	.	.
!	!	!	!	!	!	!	!	!	!	!	!	!	!	!	!	!LO:TX:a:i:t=sim.	!	!LO:TX:a:i:t=sim.	!	!	!	!	!	!LO:TX:a:i:t=sim.	!	!	!	!	!	!	!
.	.	.	.	.	.	.	.	.	.	.	.	8ryy	.	.	.	.	.	.	.	.	.	.	.	.	.	.	.	.	.	.	.
4..ryy	.	8ryy	.	.	.	.	.	4..ryy	8ryy	.	.	4ryy	.	4..ryy	.	4g	.	4b	.	.	.	.	.	4dd	.	.	.	.	.	.	.
.	.	8ryy	.	.	.	.	.	.	8ryy	.	.	.	.	.	.	.	.	.	.	.	.	.	.	.	.	.	.	.	.	.	.
.	.	4ryy	.	.	.	.	.	.	4ryy	.	.	4ryy	.	.	.	4a	.	4b	.	.	.	.	.	4dd	.	.	.	.	.	.	.
16ryy	.	.	.	.	.	.	.	16ryy	.	.	.	.	.	16ryy	.	.	.	.	.	.	.	.	.	.	.	.	.	.	.	.	.
=10	=10	=10	=10	=10	=10	=10	=10	=10	=10	=10	=10	=10	=10	=10	=10	=10	=10	=10	=10	=10	=10	=10	=10	=10	=10	=10	=10	=10	=10	=10	=10
*M3/4	*	*M3/4	*	*M3/4	*	*M3/4	*	*M3/4	*M3/4	*	*M3/4	*M3/4	*	*M3/4	*	*M3/4	*	*M3/4	*	*M3/4	*	*M3/4	*	*M3/4	*	*M3/4	*	*M3/4	*	*M3/4	*
4ryy	.	4%3ryy	.	4%3ryy	.	4%3ryy	.	4ryy	4%3ryy	.	4%3ryy	4ryy	.	4ryy	.	4%3r	.	4%3r	.	4ryy	.	4ryy	.	4%3r	.	4ryy	.	4ryy	.	4%3ryy	.
!	!	!	!	!	!	!	!	!	!	!	!	!	!	!	!	!	!	!	!	!	!LO:DY:t=%s non legato, secco	!	!LO:DY:t=%s non legato, secco	!	!	!	!LO:DY:t=%s non legato, secco	!	!LO:DY:t=%s non legato, secco	!	!
4ryy	.	.	.	.	.	.	.	4ryy	.	.	.	4ryy	.	4ryy	.	.	.	.	.	4ryy	4ryy	4ryy	4ryy	.	.	4ryy	4ryy	4ryy	4ryy	.	.
4ryy	.	.	.	.	.	.	.	4ryy	.	.	.	4ryy	.	4ryy	.	.	.	.	.	4ryy	.	4ryy	.	.	.	4ryy	.	4ryy	.	.	.
=11	=11	=11	=11	=11	=11	=11	=11	=11	=11	=11	=11	=11	=11	=11	=11	=11	=11	=11	=11	=11	=11	=11	=11	=11	=11	=11	=11	=11	=11	=11	=11
*M2/2	*	*M2/2	*	*M2/2	*	*M2/2	*	*M2/2	*M2/2	*	*M2/2	*M2/2	*	*M2/2	*	*M2/2	*	*M2/2	*	*M2/2	*	*M2/2	*	*M2/2	*	*M2/2	*	*M2/2	*	*M2/2	*
!	!	!	!	!	!	!LO:TX:a:B:t=div. in 3	!	!	!	!	!	!	!	!	!	!	!	!	!	!	!	!	!	!	!	!	!	!	!	!	!
4ryy	.	1ryy	.	1ryy	.	1ryy	.	4ryy	1ryy	.	1ryy	1ryy	.	4ryy	.	4r	.	4r	.	4ryy	.	4ryy	.	4r	.	4ryy	.	4ryy	.	1ryy	.
4ryy	.	.	.	.	.	.	.	4ryy	.	.	.	.	.	4ryy	.	8r	.	8r	.	4ryy	.	4ryy	.	8r	.	4ryy	.	4ryy	.	.	.
.	.	.	.	.	.	.	.	.	.	.	.	.	.	.	.	8a	.	8cc	.	.	.	.	.	8dd	.	.	.	.	.	.	.
4..ryy	.	.	.	.	.	.	.	4..ryy	.	.	.	.	.	4..ryy	.	4a	.	4dd	.	2ryy	.	2ryy	.	4bX	.	2ryy	.	2ryy	.	.	.
.	.	.	.	.	.	.	.	.	.	.	.	.	.	.	.	4g	.	4a	.	.	.	.	.	4dd	.	.	.	.	.	.	.
16ryy	.	.	.	.	.	.	.	16ryy	.	.	.	.	.	16ryy	.	.	.	.	.	.	.	.	.	.	.	.	.	.	.	.	.
=12	=12	=12	=12	=12	=12	=12	=12	=12	=12	=12	=12	=12	=12	=12	=12	=12	=12	=12	=12	=12	=12	=12	=12	=12	=12	=12	=12	=12	=12	=12	=12
*M3/4	*	*M3/4	*	*M3/4	*	*M3/4	*	*M3/4	*M3/4	*	*M3/4	*M3/4	*	*M3/4	*	*M3/4	*	*M3/4	*	*M3/4	*	*M3/4	*	*M3/4	*	*M3/4	*	*M3/4	*	*M3/4	*
4ryy	.	4%3ryy	.	4ryy	.	4ryy	.	4ryy	4ryy	.	4%3ryy	4ryy	.	4ryy	.	4B	.	4g	.	4%3ryy	.	4%3ryy	.	4a	.	4%3ryy	.	4%3ryy	.	4%3ryy	.
!	!	!	!	!LO:TX:a:B:t=div. in 3	!	!LO:TX:a:t=pizz.	!	!	!	!	!	!	!	!	!	!	!	!	!	!	!	!	!	!	!	!	!	!	!	!	!
4ryy	.	.	.	4ryy	.	4ryy	4ryy	4ryy	4ryy	.	.	4ryy	4ryy	4ryy	.	4r	.	4r	.	.	.	.	.	4r	.	.	.	.	.	.	.
4ryy	.	.	.	8ryy	4ryy	4ryy	.	4ryy	8ryy	.	.	4ryy	.	4ryy	.	4r	.	4r	.	.	.	.	.	4r	.	.	.	.	.	.	.
.	.	.	.	8ryy	.	.	.	.	8ryy	.	.	.	.	.	.	.	.	.	.	.	.	.	.	.	.	.	.	.	.	.	.
!!pagebreak:origina
!!LO:REH:t=46
=13	=13	=13	=13	=13	=13	=13	=13	=13	=13	=13	=13	=13	=13	=13	=13	=13	=13	=13	=13	=13	=13	=13	=13	=13	=13	=13	=13	=13	=13	=13	=13
*M2/2	*	*M2/2	*	*M2/2	*	*M2/2	*	*M2/2	*M2/2	*	*M2/2	*M2/2	*	*M2/2	*	*M2/2	*	*M2/2	*	*M2/2	*	*M2/2	*	*M2/2	*	*M2/2	*	*M2/2	*	*M2/2	*
4ryy	.	1ryy	.	8ryy	.	4ryy	.	4ryy	8ryy	.	1ryy	4ryy	.	4ryy	.	1r	.	1r	.	4ryy	.	4ryy	.	1r	.	4ryy	.	4ryy	.	1ryy	.
.	.	.	.	8ryy	.	.	.	.	8ryy	.	.	.	.	.	.	.	.	.	.	.	.	.	.	.	.	.	.	.	.	.	.
4ryy	.	.	.	4ryy	.	4ryy	.	4ryy	4ryy	.	.	4ryy	.	4ryy	.	.	.	.	.	4ryy	.	4ryy	.	.	.	4ryy	.	4ryy	.	.	.
.	.	.	.	.	.	.	.	.	.	.	.	8ryy	.	.	.	.	.	.	.	.	.	.	.	.	.	.	.	.	.	.	.
4..ryy	.	.	.	4ryy	.	4ryy	.	4..ryy	4ryy	.	.	4ryy	.	4..ryy	.	.	.	.	.	4..ryy	.	4..ryy	.	.	.	4..ryy	.	4..ryy	.	.	.
.	.	.	.	8ryy	.	4ryy	.	.	8ryy	.	.	4ryy	.	.	.	.	.	.	.	.	.	.	.	.	.	.	.	.	.	.	.
.	.	.	.	8ryy	.	.	.	.	8ryy	.	.	.	.	.	.	.	.	.	.	.	.	.	.	.	.	.	.	.	.	.	.
16ryy	.	.	.	.	.	.	.	16ryy	.	.	.	.	.	16ryy	.	.	.	.	.	16ryy	.	16ryy	.	.	.	16ryy	.	16ryy	.	.	.
=14	=14	=14	=14	=14	=14	=14	=14	=14	=14	=14	=14	=14	=14	=14	=14	=14	=14	=14	=14	=14	=14	=14	=14	=14	=14	=14	=14	=14	=14	=14	=14
*M3/4	*	*M3/4	*	*M3/4	*	*M3/4	*	*M3/4	*M3/4	*	*M3/4	*M3/4	*	*M3/4	*	*M3/4	*	*M3/4	*	*M3/4	*	*M3/4	*	*M3/4	*	*M3/4	*	*M3/4	*	*M3/4	*
4ryy	.	4%3ryy	.	4%3ryy	.	4ryy	.	4ryy	4%3ryy	.	4%3ryy	4ryy	.	4ryy	.	4%3r	.	4%3r	.	4ryy	.	4ryy	.	4%3r	.	4ryy	.	4ryy	.	4%3ryy	.
4ryy	.	.	.	.	.	4ryy	.	4ryy	.	.	.	4ryy	.	4ryy	.	.	.	.	.	4ryy	.	4ryy	.	.	.	4ryy	.	4ryy	.	.	.
!	!	!	!	!	!	!LO:TX:a:t=arco	!	!	!	!	!	!	!	!	!	!	!	!	!	!	!	!	!	!	!	!	!	!	!	!	!
4ryy	.	.	.	.	.	4ryy	.	4ryy	.	.	.	4ryy	.	4ryy	.	.	.	.	.	4ryy	.	4ryy	.	.	.	4ryy	.	4ryy	.	.	.
=||	=||	=||	=||	=||	=||	=||	=||	=||	=||	=||	=||	=||	=||	=||	=||	=||	=||	=||	=||	=||	=||	=||	=||	=||	=||	=||	=||	=||	=||	=||	=||
*-	*-	*-	*-	*-	*-	*-	*-	*-	*-	*-	*-	*-	*-	*-	*-	*-	*-	*-	*-	*-	*-	*-	*-	*-	*-	*-	*-	*-	*-	*-	*-
!!!system-decoration: [(s1[(s2,s3,s4)][(s5,s6)])][(s7,s8)][(s9)][(s10,s11)][({(s12,s13)})][(s14,s15,s16,s17)]
